public/special-server.svg

<svg width="225" height="271" viewBox="0 0 225 271" fill="none" xmlns="http://www.w3.org/2000/svg">
<mask id="mask0_9_80625" style="mask-type:luminance" maskUnits="userSpaceOnUse" x="0" y="0" width="225" height="271">
<path d="M225 0H0V271H225V0Z" fill="white"/>
</mask>
<g mask="url(#mask0_9_80625)">
<path d="M223.52 158.832H176.624L124.423 126.882C117.701 122.77 105.958 123.283 98.1937 128.039L47.8721 158.833H1.00491V323.021H1.02075C0.827495 325.804 2.29513 328.493 5.52355 330.468L100.079 388.344C106.801 392.456 118.545 391.943 126.313 387.188L217.099 331.62C221.13 329.154 223.278 326.029 223.487 323.018H223.521L223.52 158.832Z" fill="url(#paint0_linear_9_80625)"/>
<path d="M220.687 179.293L119.991 238.417C117.887 239.682 115.48 240.35 113.026 240.35C110.572 240.35 108.164 239.682 106.06 238.417L3.82969 178.407C2.93789 177.832 2.20942 177.036 1.71482 176.097C1.22022 175.158 0.976192 174.107 1.00641 173.046V141.979L105.058 97.6385C107.078 96.7036 109.272 96.2069 111.496 96.1808C113.721 96.1547 115.926 96.5999 117.967 97.4871L223.507 142.866V173.939C223.535 174.998 223.29 176.046 222.796 176.983C222.302 177.92 221.576 178.714 220.687 179.289V179.293Z" fill="#DADEE9"/>
<path d="M222.4 144.488L119.738 204.779C117.643 206.037 115.246 206.702 112.804 206.702C110.361 206.702 107.964 206.037 105.87 204.779L2.11865 143.867C1.62245 143.532 1.25999 143.032 1.0949 142.456C0.929806 141.881 0.972597 141.265 1.21581 140.717C1.39427 140.275 1.71105 139.903 2.11865 139.656L104.809 79.3556C106.897 78.103 109.286 77.4414 111.72 77.4414C114.155 77.4414 116.543 78.103 118.631 79.3556L222.403 140.284C222.899 140.621 223.26 141.122 223.423 141.699C223.587 142.277 223.542 142.893 223.297 143.441C223.119 143.877 222.805 144.245 222.403 144.491L222.4 144.488Z" fill="#F2F5FC"/>
<path d="M197.321 146.129L123.351 189.576C120.831 191.09 117.947 191.889 115.008 191.889C112.069 191.889 109.185 191.09 106.665 189.576L27.2005 142.919C26.6231 142.528 26.2015 141.947 26.0095 141.277C25.8174 140.606 25.8672 139.889 26.1502 139.252C26.358 138.737 26.7264 138.304 27.2005 138.016L102.456 93.8147C104.588 92.5352 107.027 91.8594 109.513 91.8594C111.999 91.8594 114.438 92.5352 116.57 93.8147L197.328 141.226C197.905 141.618 198.326 142.2 198.517 142.872C198.709 143.543 198.658 144.26 198.374 144.898C198.166 145.408 197.799 145.838 197.328 146.124L197.321 146.129Z" fill="#3A456E"/>
<path d="M197.323 146.126L189.774 150.567L116.574 107.589C114.442 106.308 112.003 105.632 109.516 105.632C107.03 105.632 104.591 106.308 102.459 107.589L34.7543 147.349L27.2005 142.915C26.6232 142.525 26.2015 141.943 26.0094 141.273C25.8174 140.603 25.8672 139.886 26.1502 139.249C26.3581 138.735 26.7265 138.301 27.2005 138.013L102.46 93.8124C104.592 92.5319 107.031 91.8555 109.517 91.8555C112.004 91.8555 114.443 92.5319 116.575 93.8124L197.332 141.224C197.907 141.62 198.324 142.205 198.512 142.878C198.7 143.55 198.646 144.267 198.359 144.903C198.151 145.408 197.787 145.833 197.322 146.118L197.323 146.126Z" fill="#E0E3ED"/>
<path d="M207.684 170.658C207.684 173.088 209.364 174.077 211.437 172.861C212.534 172.13 213.445 171.152 214.096 170.005C214.748 168.858 215.122 167.574 215.188 166.257C215.188 163.827 213.507 162.839 211.437 164.056C210.339 164.786 209.428 165.764 208.776 166.91C208.124 168.057 207.75 169.341 207.684 170.658Z" fill="#FFE06A"/>
<path d="M210.473 171.728C211.571 170.998 212.483 170.02 213.134 168.873C213.786 167.726 214.161 166.442 214.227 165.124C214.232 164.654 214.149 164.186 213.983 163.746C214.4 164.008 214.736 164.383 214.95 164.827C215.165 165.271 215.25 165.767 215.196 166.257C215.13 167.575 214.756 168.858 214.105 170.005C213.453 171.152 212.542 172.13 211.445 172.861C209.828 173.811 208.467 173.411 207.938 172.04C208.353 172.208 208.803 172.267 209.248 172.213C209.692 172.158 210.116 171.992 210.478 171.728H210.473Z" fill="#FCFCFC"/>
<path d="M195.117 177.84C195.117 180.27 196.798 181.261 198.868 180.043C199.965 179.312 200.875 178.333 201.526 177.187C202.178 176.04 202.552 174.757 202.62 173.439C202.62 171.01 200.939 170.018 198.868 171.235C197.771 171.966 196.859 172.944 196.208 174.091C195.556 175.238 195.183 176.522 195.117 177.84Z" fill="url(#paint1_linear_9_80625)"/>
<path d="M197.903 178.912C199.001 178.18 199.912 177.2 200.564 176.053C201.215 174.905 201.589 173.62 201.655 172.301C201.661 171.83 201.578 171.362 201.412 170.922C201.829 171.186 202.163 171.561 202.376 172.006C202.589 172.451 202.674 172.946 202.619 173.437C202.552 174.754 202.177 176.037 201.526 177.184C200.875 178.331 199.964 179.309 198.868 180.041C197.254 180.983 195.889 180.583 195.359 179.215C195.775 179.384 196.226 179.445 196.671 179.392C197.115 179.339 197.54 179.173 197.903 178.912Z" fill="white"/>
<path d="M106.354 139.682C106.196 139.6 106.021 139.556 105.843 139.552C105.666 139.547 105.489 139.584 105.327 139.658C104.08 140.081 102.62 141.807 101.651 143.877C101.371 144.455 101.137 145.054 100.952 145.669C100.342 147.691 100.507 149.192 101.274 149.649L63.2205 126.976L63.0888 126.895C62.3662 126.428 62.2084 124.933 62.8003 122.94C62.9839 122.304 63.2255 121.687 63.522 121.095C64.4986 119.058 65.9494 117.35 67.1836 116.925C67.3528 116.854 67.5362 116.823 67.7194 116.834C67.9026 116.846 68.0806 116.9 68.2395 116.992V116.974L106.354 139.682Z" fill="url(#paint2_linear_9_80625)"/>
<path d="M100.945 145.669C100.335 147.69 100.5 149.192 101.267 149.649L63.2087 126.974L63.077 126.895C62.3544 126.428 62.1967 124.933 62.7886 122.938C62.9725 122.303 63.2144 121.685 63.5111 121.094L101.641 143.875C101.363 144.454 101.131 145.054 100.948 145.67L100.945 145.669Z" fill="url(#paint3_linear_9_80625)"/>
<path d="M106.711 143.698C105.881 146.471 103.924 149.161 102.329 149.696C102.165 149.768 101.986 149.802 101.807 149.796C101.628 149.79 101.452 149.745 101.293 149.663L101.268 149.651C100.504 149.196 100.334 147.688 100.944 145.667C101.775 142.893 103.732 140.202 105.324 139.654C105.487 139.581 105.663 139.546 105.841 139.551C106.019 139.556 106.193 139.602 106.351 139.683C107.125 140.098 107.319 141.629 106.711 143.698Z" fill="#215BF6"/>
<path d="M97.8325 145.47C99.1811 138.646 105.258 134.119 111.403 135.36C117.549 136.602 121.437 143.14 120.087 149.967C118.738 156.794 112.664 161.312 106.518 160.071C100.372 158.829 96.4838 152.293 97.8325 145.47Z" fill="url(#paint4_linear_9_80625)"/>
<path d="M157.068 169.77C156.911 169.688 156.738 169.643 156.561 169.637C156.385 169.631 156.209 169.665 156.047 169.736C154.791 170.168 153.308 171.939 152.332 174.023C152.07 174.581 151.848 175.157 151.67 175.747C151.059 177.768 151.225 179.28 151.993 179.727L114.338 157.439L114.206 157.357C113.484 156.89 113.325 155.395 113.919 153.402C114.103 152.794 114.333 152.2 114.606 151.626C115.582 149.551 117.055 147.812 118.293 147.387C118.464 147.317 118.648 147.285 118.832 147.295C119.016 147.304 119.196 147.355 119.358 147.443V147.433L157.068 169.77Z" fill="url(#paint5_linear_9_80625)"/>
<path d="M157.434 173.778C156.605 176.551 154.648 179.241 153.053 179.778C152.889 179.85 152.71 179.884 152.531 179.878C152.352 179.872 152.176 179.827 152.017 179.744L151.991 179.732C151.226 179.277 151.057 177.77 151.667 175.752C152.496 172.979 154.453 170.289 156.046 169.739C156.209 169.667 156.385 169.632 156.563 169.637C156.741 169.642 156.915 169.687 157.073 169.768C157.849 170.177 158.046 171.714 157.434 173.778Z" fill="url(#paint6_linear_9_80625)"/>
<path d="M151.994 179.727L114.338 157.433L114.206 157.351C113.484 156.884 113.325 155.389 113.919 153.397C114.103 152.788 114.332 152.195 114.605 151.621L152.33 174.013C152.067 174.571 151.846 175.147 151.667 175.737C151.058 177.767 151.226 179.278 151.994 179.727Z" fill="url(#paint7_linear_9_80625)"/>
<path d="M113.817 105.809V138.079H113.8C113.769 138.541 113.624 138.988 113.378 139.38C113.131 139.772 112.791 140.095 112.387 140.322C111.364 140.955 110.194 141.313 108.992 141.361C107.79 141.409 106.595 141.146 105.525 140.596C105.118 140.401 104.771 140.1 104.519 139.725C104.267 139.35 104.12 138.915 104.094 138.464V106.203C104.12 106.653 104.266 107.087 104.518 107.461C104.77 107.834 105.118 108.133 105.525 108.325C106.594 108.881 107.789 109.148 108.992 109.1C110.196 109.052 111.366 108.691 112.387 108.051C112.791 107.828 113.133 107.505 113.38 107.114C113.626 106.724 113.771 106.277 113.8 105.815L113.817 105.809Z" fill="url(#paint8_linear_9_80625)"/>
<path d="M113.816 105.809V138.079H113.799C113.769 138.541 113.624 138.989 113.377 139.38C113.131 139.772 112.79 140.096 112.386 140.322C111.358 140.975 110.171 141.333 108.953 141.359V109.1C110.172 109.07 111.359 108.707 112.386 108.049C112.79 107.826 113.132 107.503 113.379 107.113C113.626 106.722 113.77 106.275 113.799 105.813L113.816 105.809Z" fill="url(#paint9_linear_9_80625)"/>
<path d="M177.664 130.386C177.664 114.5 167.496 95.2191 154.871 86.99C150.098 67.0042 137.214 46.7063 122.023 37.1494C114.882 32.6554 108.27 31.2173 102.75 32.3657V32.3358L91.8194 34.672C91.8194 34.672 84.9265 44.1374 84.0704 46.6334C81.6729 44.6972 78.198 42.5871 75.7986 42.9768L64.0781 45.0327C64.0781 45.0327 71.6749 96.9693 84.4953 105.034C89.9531 108.466 159.315 150.675 159.315 150.675L167.169 148.105L167.142 148.093C173.47 146.893 177.664 140.572 177.664 130.386Z" fill="url(#paint10_linear_9_80625)"/>
<path d="M145.845 89.6259C140.795 69.628 127.164 49.303 111.092 39.7143C95.0212 30.1256 81.3886 34.1896 76.3387 48.1611C62.9796 40.4768 52.2227 46.9463 52.2227 62.8325C52.2227 78.8962 63.2205 98.4755 76.7868 106.566L145.4 147.497C158.965 155.59 169.963 149.128 169.963 133.068C169.963 117.187 159.202 97.8812 145.845 89.6259Z" fill="#F2F5FC"/>
<path d="M177.664 130.386C177.664 114.5 167.496 95.2191 154.871 86.99C150.098 67.0042 137.214 46.7063 122.023 37.1494C114.882 32.6554 108.27 31.2173 102.75 32.3657V32.3358L91.8194 34.672C91.8194 34.672 84.9265 44.1374 84.0704 46.6334C81.6729 44.6972 78.198 42.5871 75.7986 42.9768L64.0781 45.0327C64.0781 45.0327 71.6749 96.9693 84.4953 105.034C89.9531 108.466 159.315 150.675 159.315 150.675L167.169 148.105L167.142 148.093C173.47 146.893 177.664 140.572 177.664 130.386Z" fill="url(#paint11_linear_9_80625)"/>
<path d="M145.845 89.6259C140.795 69.628 127.164 49.303 111.092 39.7143C95.0212 30.1256 81.3886 34.1896 76.3387 48.1611C62.9796 40.4768 52.2227 46.9463 52.2227 62.8325C52.2227 78.8962 63.2205 98.4755 76.7868 106.566L145.4 147.497C158.965 155.59 169.963 149.128 169.963 133.068C169.963 117.187 159.202 97.8812 145.845 89.6259Z" fill="#F2F5FC"/>
<path d="M140.531 179.654L160.013 168.211L165.249 176.324L145.987 188.166" fill="#F2F5FC"/>
</g>
<defs>
<linearGradient id="paint0_linear_9_80625" x1="127.171" y1="424.498" x2="139.981" y2="108.777" gradientUnits="userSpaceOnUse">
<stop stop-color="white"/>
<stop offset="1" stop-color="#C8CEDE"/>
</linearGradient>
<linearGradient id="paint1_linear_9_80625" x1="-958.61" y1="471.396" x2="-958.61" y2="471.446" gradientUnits="userSpaceOnUse">
<stop stop-color="#5E98F7"/>
<stop offset="1" stop-color="#4670BA"/>
</linearGradient>
<linearGradient id="paint2_linear_9_80625" x1="-1005.44" y1="485.335" x2="-1005.44" y2="485.335" gradientUnits="userSpaceOnUse">
<stop stop-color="white"/>
<stop offset="1" stop-color="#C8CEDE"/>
</linearGradient>
<linearGradient id="paint3_linear_9_80625" x1="-1004.42" y1="484.256" x2="-1004.42" y2="484.285" gradientUnits="userSpaceOnUse">
<stop stop-color="white"/>
<stop offset="0.506" stop-color="#CAD1E0"/>
<stop offset="1" stop-color="#C8CEDE"/>
</linearGradient>
<linearGradient id="paint4_linear_9_80625" x1="122.486" y1="183.069" x2="92.0394" y2="92.7569" gradientUnits="userSpaceOnUse">
<stop stop-color="white"/>
<stop offset="0.506" stop-color="#CAD1E0"/>
<stop offset="1" stop-color="#C8CEDE"/>
</linearGradient>
<linearGradient id="paint5_linear_9_80625" x1="-1005.39" y1="485.841" x2="-1005.39" y2="485.873" gradientUnits="userSpaceOnUse">
<stop stop-color="white"/>
<stop offset="0.506" stop-color="#CAD1E0"/>
<stop offset="1" stop-color="#C8CEDE"/>
</linearGradient>
<linearGradient id="paint6_linear_9_80625" x1="-950.296" y1="471.967" x2="-950.296" y2="472.018" gradientUnits="userSpaceOnUse">
<stop stop-color="white"/>
<stop offset="0.506" stop-color="#CAD1E0"/>
<stop offset="1" stop-color="#C8CEDE"/>
</linearGradient>
<linearGradient id="paint7_linear_9_80625" x1="-1004.19" y1="484.868" x2="-1004.19" y2="484.896" gradientUnits="userSpaceOnUse">
<stop stop-color="white"/>
<stop offset="0.506" stop-color="#CAD1E0"/>
<stop offset="1" stop-color="#C8CEDE"/>
</linearGradient>
<linearGradient id="paint8_linear_9_80625" x1="-971.539" y1="485.678" x2="-971.539" y2="485.714" gradientUnits="userSpaceOnUse">
<stop stop-color="white"/>
<stop offset="0.506" stop-color="#CAD1E0"/>
<stop offset="1" stop-color="#C8CEDE"/>
</linearGradient>
<linearGradient id="paint9_linear_9_80625" x1="-927.766" y1="485.666" x2="-927.766" y2="485.666" gradientUnits="userSpaceOnUse">
<stop stop-color="white"/>
<stop offset="0.506" stop-color="#CAD1E0"/>
<stop offset="1" stop-color="#C8CEDE"/>
</linearGradient>
<linearGradient id="paint10_linear_9_80625" x1="-1011.35" y1="490.475" x2="-1011.35" y2="490.475" gradientUnits="userSpaceOnUse">
<stop stop-color="#5E98F7"/>
<stop offset="1" stop-color="#4670BA"/>
</linearGradient>
<linearGradient id="paint11_linear_9_80625" x1="-1011.35" y1="490.475" x2="-1011.35" y2="490.475" gradientUnits="userSpaceOnUse">
<stop stop-color="#5E98F7"/>
<stop offset="1" stop-color="#4670BA"/>
</linearGradient>
</defs>
</svg>

<svg xmlns="http://www.w3.org/2000/svg" width="225" height="271" fill="none" viewBox="0 0 225 271"><mask id="a" width="225" height="271" x="0" y="0" maskUnits="userSpaceOnUse" style="mask-type:luminance"><path fill="#fff" d="M225 0H0v271h225z"/></mask><g mask="url(#a)"><path fill="url(#b)" d="M223.52 158.832h-46.896l-52.201-31.95c-6.722-4.112-18.465-3.599-26.23 1.157l-50.32 30.794H1.004v164.188h.016c-.194 2.783 1.274 5.472 4.503 7.447l94.555 57.876c6.722 4.112 18.466 3.599 26.234-1.156l90.786-55.568c4.031-2.466 6.179-5.591 6.388-8.602h.034z"/><path fill="#dadee9" d="m220.687 179.293-100.696 59.124a13.52 13.52 0 0 1-13.931 0L3.83 178.407a6.17 6.17 0 0 1-2.824-5.361v-31.067l104.052-44.34a15.77 15.77 0 0 1 12.909-.152l105.54 45.379v31.073a6.18 6.18 0 0 1-2.82 5.35z"/><path fill="#f2f5fc" d="m222.4 144.488-102.662 60.291a13.47 13.47 0 0 1-13.868 0L2.119 143.867a2.55 2.55 0 0 1-.903-3.15c.178-.442.495-.814.903-1.061l102.69-60.3a13.44 13.44 0 0 1 13.822 0l103.772 60.928a2.556 2.556 0 0 1 .894 3.157 2.2 2.2 0 0 1-.894 1.05z"/><path fill="#3a456e" d="m197.321 146.129-73.97 43.447a16.2 16.2 0 0 1-16.686 0l-79.464-46.657a2.97 2.97 0 0 1-1.05-3.667 2.57 2.57 0 0 1 1.05-1.236l75.255-44.201a13.71 13.71 0 0 1 14.114 0l80.758 47.411c.577.392.998.974 1.189 1.646a2.97 2.97 0 0 1-.143 2.026 2.57 2.57 0 0 1-1.046 1.226z"/><path fill="#e0e3ed" d="m197.323 146.126-7.549 4.441-73.2-42.978a13.7 13.7 0 0 0-14.115 0l-67.705 39.76-7.553-4.434a2.97 2.97 0 0 1-1.05-3.666 2.58 2.58 0 0 1 1.05-1.236l75.259-44.2a13.7 13.7 0 0 1 14.115 0l80.757 47.411a2.98 2.98 0 0 1 1.027 3.679c-.208.505-.572.93-1.037 1.215z"/><path fill="#ffe06a" d="M207.684 170.658c0 2.43 1.68 3.419 3.753 2.203a8.44 8.44 0 0 0 3.751-6.604c0-2.43-1.681-3.418-3.751-2.201a8.44 8.44 0 0 0-3.753 6.602"/><path fill="#fcfcfc" d="M210.473 171.728a8.442 8.442 0 0 0 3.754-6.604 3.8 3.8 0 0 0-.244-1.378 2.62 2.62 0 0 1 1.213 2.511 8.45 8.45 0 0 1-3.751 6.604c-1.617.95-2.978.55-3.507-.821a2.64 2.64 0 0 0 2.54-.312z"/><path fill="url(#c)" d="M195.117 177.84c0 2.43 1.681 3.421 3.751 2.203a8.465 8.465 0 0 0 3.752-6.604c0-2.429-1.681-3.421-3.752-2.204a8.44 8.44 0 0 0-3.751 6.605"/><path fill="#fff" d="M197.903 178.912a8.46 8.46 0 0 0 3.752-6.611 3.8 3.8 0 0 0-.243-1.379 2.634 2.634 0 0 1 1.207 2.515 8.46 8.46 0 0 1-3.751 6.604c-1.614.942-2.979.542-3.509-.826a2.65 2.65 0 0 0 2.544-.303"/><path fill="url(#d)" d="M106.354 139.682a1.17 1.17 0 0 0-1.027-.024c-1.247.423-2.707 2.149-3.676 4.219q-.42.868-.699 1.792c-.61 2.022-.445 3.523.322 3.98l-38.053-22.673-.132-.081c-.723-.467-.88-1.962-.289-3.955a11 11 0 0 1 .722-1.845c.977-2.037 2.427-3.745 3.662-4.17a1.194 1.194 0 0 1 1.056.067v-.018z"/><path fill="url(#e)" d="M100.945 145.669c-.61 2.021-.445 3.523.322 3.98l-38.058-22.675-.132-.079c-.723-.467-.88-1.962-.288-3.957.183-.635.425-1.253.722-1.844l38.13 22.781q-.418.87-.693 1.795z"/><path fill="#215bf6" d="M106.711 143.698c-.83 2.773-2.787 5.463-4.382 5.998a1.2 1.2 0 0 1-1.036-.033l-.025-.012c-.764-.455-.934-1.963-.324-3.984.831-2.774 2.788-5.465 4.38-6.013a1.18 1.18 0 0 1 1.027.029c.774.415.968 1.946.36 4.015"/><path fill="url(#f)" d="M97.833 145.47c1.348-6.824 7.425-11.351 13.57-10.11s10.034 7.78 8.684 14.607c-1.349 6.827-7.423 11.345-13.569 10.104s-10.034-7.778-8.686-14.601"/><path fill="url(#g)" d="M157.068 169.77a1.18 1.18 0 0 0-1.021-.034c-1.256.432-2.739 2.203-3.715 4.287a13 13 0 0 0-.662 1.724c-.611 2.021-.445 3.533.323 3.98l-37.655-22.288-.132-.082c-.722-.467-.881-1.962-.287-3.955q.277-.913.687-1.776c.976-2.075 2.449-3.814 3.687-4.239a1.25 1.25 0 0 1 1.065.056v-.01z"/><path fill="url(#h)" d="M157.434 173.778c-.829 2.773-2.786 5.463-4.381 6a1.2 1.2 0 0 1-1.036-.034l-.026-.012c-.765-.455-.934-1.962-.324-3.98.829-2.773 2.786-5.463 4.379-6.013a1.2 1.2 0 0 1 1.027.029c.776.409.973 1.946.361 4.01"/><path fill="url(#i)" d="m151.994 179.727-37.656-22.294-.132-.082c-.722-.467-.881-1.962-.287-3.954q.276-.914.686-1.776l37.725 22.392a13 13 0 0 0-.663 1.724c-.609 2.03-.441 3.541.327 3.99"/><path fill="url(#j)" d="M113.817 105.809v32.27h-.017a2.779 2.779 0 0 1-1.413 2.243 6.98 6.98 0 0 1-6.862.274 2.53 2.53 0 0 1-1.431-2.132v-32.261a2.51 2.51 0 0 0 1.431 2.122 6.92 6.92 0 0 0 6.862-.274 2.75 2.75 0 0 0 1.413-2.236z"/><path fill="url(#k)" d="M113.816 105.809v32.27h-.017a2.77 2.77 0 0 1-1.413 2.243 6.67 6.67 0 0 1-3.433 1.037V109.1a6.67 6.67 0 0 0 3.433-1.051 2.75 2.75 0 0 0 1.413-2.236z"/><path fill="url(#l)" d="M177.664 130.386c0-15.886-10.168-35.167-22.793-43.396-4.773-19.986-17.657-40.284-32.848-49.84-7.141-4.495-13.753-5.933-19.273-4.784v-.03l-10.93 2.336s-6.893 9.465-7.75 11.961c-2.397-1.936-5.872-4.046-8.271-3.656l-11.72 2.056s7.596 51.936 20.416 60.001c5.458 3.432 74.82 45.641 74.82 45.641l7.854-2.57-.027-.012c6.328-1.2 10.522-7.521 10.522-17.707"/><path fill="#f2f5fc" d="M145.845 89.626c-5.05-19.998-18.681-40.323-34.753-49.912-16.07-9.588-29.703-5.524-34.753 8.447-13.36-7.684-24.116-1.215-24.116 14.672 0 16.063 10.998 35.643 24.564 43.733l68.613 40.931c13.565 8.093 24.563 1.631 24.563-14.429 0-15.881-10.761-35.187-24.118-43.442"/><path fill="url(#m)" d="M177.664 130.386c0-15.886-10.168-35.167-22.793-43.396-4.773-19.986-17.657-40.284-32.848-49.84-7.141-4.495-13.753-5.933-19.273-4.784v-.03l-10.93 2.336s-6.893 9.465-7.75 11.961c-2.397-1.936-5.872-4.046-8.271-3.656l-11.72 2.056s7.596 51.936 20.416 60.001c5.458 3.432 74.82 45.641 74.82 45.641l7.854-2.57-.027-.012c6.328-1.2 10.522-7.521 10.522-17.707"/><path fill="#f2f5fc" d="M145.845 89.626c-5.05-19.998-18.681-40.323-34.753-49.912-16.07-9.588-29.703-5.524-34.753 8.447-13.36-7.684-24.116-1.215-24.116 14.672 0 16.063 10.998 35.643 24.564 43.733l68.613 40.931c13.565 8.093 24.563 1.631 24.563-14.429 0-15.881-10.761-35.187-24.118-43.442M140.531 179.654l19.482-11.443 5.236 8.113-19.262 11.842"/></g><defs><linearGradient id="b" x1="127.171" x2="139.981" y1="424.498" y2="108.777" gradientUnits="userSpaceOnUse"><stop stop-color="#fff"/><stop offset="1" stop-color="#c8cede"/></linearGradient><linearGradient id="c" x1="-958.61" x2="-958.61" y1="471.396" y2="471.446" gradientUnits="userSpaceOnUse"><stop stop-color="#5e98f7"/><stop offset="1" stop-color="#4670ba"/></linearGradient><linearGradient id="d" x1="-1005.44" x2="-1005.44" y1="485.335" y2="485.335" gradientUnits="userSpaceOnUse"><stop stop-color="#fff"/><stop offset="1" stop-color="#c8cede"/></linearGradient><linearGradient id="e" x1="-1004.42" x2="-1004.42" y1="484.256" y2="484.285" gradientUnits="userSpaceOnUse"><stop stop-color="#fff"/><stop offset=".506" stop-color="#cad1e0"/><stop offset="1" stop-color="#c8cede"/></linearGradient><linearGradient id="f" x1="122.486" x2="92.039" y1="183.069" y2="92.757" gradientUnits="userSpaceOnUse"><stop stop-color="#fff"/><stop offset=".506" stop-color="#cad1e0"/><stop offset="1" stop-color="#c8cede"/></linearGradient><linearGradient id="g" x1="-1005.39" x2="-1005.39" y1="485.841" y2="485.873" gradientUnits="userSpaceOnUse"><stop stop-color="#fff"/><stop offset=".506" stop-color="#cad1e0"/><stop offset="1" stop-color="#c8cede"/></linearGradient><linearGradient id="h" x1="-950.296" x2="-950.296" y1="471.967" y2="472.018" gradientUnits="userSpaceOnUse"><stop stop-color="#fff"/><stop offset=".506" stop-color="#cad1e0"/><stop offset="1" stop-color="#c8cede"/></linearGradient><linearGradient id="i" x1="-1004.19" x2="-1004.19" y1="484.868" y2="484.896" gradientUnits="userSpaceOnUse"><stop stop-color="#fff"/><stop offset=".506" stop-color="#cad1e0"/><stop offset="1" stop-color="#c8cede"/></linearGradient><linearGradient id="j" x1="-971.539" x2="-971.539" y1="485.678" y2="485.714" gradientUnits="userSpaceOnUse"><stop stop-color="#fff"/><stop offset=".506" stop-color="#cad1e0"/><stop offset="1" stop-color="#c8cede"/></linearGradient><linearGradient id="k" x1="-927.766" x2="-927.766" y1="485.666" y2="485.666" gradientUnits="userSpaceOnUse"><stop stop-color="#fff"/><stop offset=".506" stop-color="#cad1e0"/><stop offset="1" stop-color="#c8cede"/></linearGradient><linearGradient id="l" x1="-1011.35" x2="-1011.35" y1="490.475" y2="490.475" gradientUnits="userSpaceOnUse"><stop stop-color="#5e98f7"/><stop offset="1" stop-color="#4670ba"/></linearGradient><linearGradient id="m" x1="-1011.35" x2="-1011.35" y1="490.475" y2="490.475" gradientUnits="userSpaceOnUse"><stop stop-color="#5e98f7"/><stop offset="1" stop-color="#4670ba"/></linearGradient></defs></svg>
